assets/images/footer-email-icon.svg

<svg width="22" height="16" viewBox="0 0 22 16" fill="none" xmlns="http://www.w3.org/2000/svg">
<path id="icon" fill-rule="evenodd" clip-rule="evenodd" d="M19 0C20.6569 0 22 1.34315 22 3V13C22 14.6569 20.6569 16 19 16H3C1.34315 16 0 14.6569 0 13V3C0 1.34315 1.34315 0 3 0H19ZM18.2529 2H3.74718L10.3804 7.23673C10.7437 7.52356 11.2563 7.52356 11.6197 7.23673L18.2529 2ZM2 3.1688V13C2 13.5523 2.44772 14 3 14H19C19.5523 14 20 13.5523 20 13V3.16882L12.8589 8.8065C11.769 9.66697 10.231 9.66697 9.14108 8.8065L2 3.1688Z" fill="#151618"/>
</svg>

<svg width="22" height="16" fill="none" xmlns="http://www.w3.org/2000/svg"><path fill-rule="evenodd" clip-rule="evenodd" d="M19 0a3 3 0 0 1 3 3v10a3 3 0 0 1-3 3H3a3 3 0 0 1-3-3V3a3 3 0 0 1 3-3h16Zm-.747 2H3.747l6.633 5.237a1 1 0 0 0 1.24 0L18.253 2ZM2 3.169V13a1 1 0 0 0 1 1h16a1 1 0 0 0 1-1V3.169l-7.141 5.637a3 3 0 0 1-3.718 0L2 3.17Z" fill="#151618"/></svg>
